svgs/fitbit.svg

<svg width="192" height="192" viewBox="0 0 192 192" fill="none" xmlns="http://www.w3.org/2000/svg">
<path d="M89.996 171.736C84.5292 170.615 80.3091 164.793 80.8547 159.125C81.9885 147.346 97.9723 144.367 103.057 154.987C107.367 163.988 99.7632 173.738 89.996 171.736ZM97.6515 169.842C102.57 167.27 104.726 160.818 102.36 155.746C96.7471 143.711 78.4878 150.585 82.273 163.309C84.1663 169.673 91.7846 172.909 97.6515 169.842ZM118.804 141.007C109.648 137.649 107.146 124.311 114.476 117.938C127.629 106.501 145.474 124.425 133.963 137.511C130.766 141.146 123.653 142.786 118.804 141.007ZM129.17 139.763C139.164 134.616 139.038 120.772 128.957 116.459C115.646 110.763 104.617 128.197 115.488 137.749C119.02 140.852 125.269 141.772 129.17 139.763ZM88.6917 139.678C83.7772 138.177 80.5577 133.553 80.5457 127.977C80.5115 112.192 103.787 111.84 104.663 127.612C105.142 136.246 97.1716 142.267 88.6917 139.678ZM95.8527 138.888C103.815 136.528 106.483 126.316 100.69 120.371C91.2638 110.696 75.7147 123.05 83.2682 134.213C86.1857 138.525 91.0202 140.321 95.8527 138.888ZM56.5493 137.846C49.9548 134.839 48.1899 126.407 53.0109 120.94C59.3973 113.697 70.9792 117.738 71.526 127.399C71.9848 135.503 63.8528 141.176 56.5493 137.846ZM64.5233 137.115C71.367 134.266 72.7885 125.652 67.2406 120.649C61.5207 115.491 52.5327 118.991 51.2709 126.868C50.1581 133.814 57.9608 139.847 64.5233 137.115ZM152.068 111.058C138.169 106.67 136.488 88.4378 149.374 81.8429C159.724 76.5463 172.027 84.2408 172 95.9936C171.976 106.37 161.736 114.11 152.068 111.058ZM162.467 109.287C176.321 102.744 172.333 81.985 157.084 81.2683C145.766 80.7363 138.056 92.5315 143.158 102.575C146.731 109.608 155.403 112.623 162.467 109.287ZM117.612 108.672C106.532 103.368 107.248 86.8815 118.739 82.7325C133.328 77.465 144.801 95.4809 133.71 106.241C129.765 110.068 122.742 111.128 117.612 108.672ZM128.289 108.322C134.141 106.436 138.04 99.85 136.926 93.7333C134.892 82.5602 120.206 78.9144 113.414 87.896C105.447 98.4309 115.623 112.406 128.289 108.322ZM87.7721 107.898C81.5098 105.606 78.0735 97.0632 80.9412 90.9152C86.4598 79.0838 104.16 81.8462 105.08 94.6825C105.776 104.395 96.842 111.216 87.7721 107.898ZM97.534 106.651C109.142 101.067 104.448 83.1968 91.6773 84.3527C78.6613 85.5309 76.9614 103.307 89.4766 107.365C91.2519 107.94 95.6662 107.549 97.534 106.651ZM57.5141 106.812C53.3956 105.657 49.7888 100.596 49.7888 95.9708C49.7888 86.3922 61.6471 81.091 68.4127 87.645C77.0589 96.0208 69.0792 110.054 57.5141 106.812ZM63.6928 105.765C71.0321 103.589 73.5533 95.0071 68.5306 89.2968C64.7798 85.0326 58.8431 84.5629 54.4649 88.1839C46.0588 95.1362 53.2608 108.858 63.6928 105.765ZM25.2995 104.694C16.2777 99.9364 19.4708 86.467 29.6304 86.4248C39.8218 86.3825 43.1036 100.239 33.9499 104.662C31.4913 105.85 27.519 105.865 25.2995 104.694ZM32.6411 104.239C37.3964 102.449 39.5998 96.729 37.3046 92.1314C33.2799 84.0694 21.0374 86.9022 21.0094 95.9021C20.9904 101.984 27.0646 106.338 32.6411 104.239ZM119.228 76.9096C105.067 71.864 108.15 51.3152 123.207 50.386C135.231 49.6438 141.837 62.7615 134.479 72.7693C131.553 76.7497 124.303 78.7179 119.228 76.9096ZM129.2 75.4766C135.301 72.8565 138.374 64.7799 135.556 58.7687C131.327 49.7481 118.999 48.5675 113.428 56.6497C106.035 67.3765 117.154 80.6494 129.2 75.4766ZM87.8111 75.2315C81.5531 73.0226 78.4728 64.2324 81.834 58.1747C88.074 46.9288 104.745 51.1776 104.745 64.0138C104.745 72.7081 96.3734 78.2538 87.8111 75.2315ZM98.3873 73.6141C106.88 68.646 105.091 55.8059 95.5337 53.129C84.8561 50.1384 76.892 62.7378 84.1269 71.1749C87.6 75.2253 93.8158 76.2884 98.3873 73.6141ZM56.5324 73.8422C50.0276 70.8927 48.1908 62.13 52.9841 56.9141C59.7916 49.5066 71.5484 53.878 71.5873 63.8312C71.6173 71.5328 63.4367 76.9727 56.5324 73.8422ZM64.6183 72.8819C71.7743 69.6435 72.7801 60.3552 66.467 55.8084C61.3062 52.0914 53.3022 55.0751 51.5353 61.3744C49.3719 69.0874 57.3998 76.1486 64.6183 72.8819ZM89.9352 43.2771C85.1854 42.3363 81.3346 37.9515 80.8819 32.9684C79.9147 22.3209 92.5046 15.8697 100.304 23.0163C109.348 31.3035 101.998 45.6663 89.9352 43.2771ZM96.7991 41.7668C103.944 38.7922 105.586 28.9124 99.7821 23.8254C89.6741 14.9663 75.7303 28.6563 84.4748 38.8539C87.3176 42.1692 92.7492 43.4529 96.7991 41.7668Z" fill="black" stroke="black" stroke-width="7"/>
</svg>

<svg xmlns="http://www.w3.org/2000/svg" width="192" height="192" fill="none" viewBox="0 0 192 192"><path fill="#000" stroke="#000" stroke-width="7" d="M89.996 171.736c-5.467-1.121-9.687-6.943-9.141-12.611 1.133-11.779 17.117-14.758 22.202-4.138 4.31 9.001-3.294 18.751-13.061 16.749Zm7.656-1.894c4.918-2.572 7.074-9.024 4.708-14.096-5.613-12.035-23.872-5.161-20.087 7.563 1.893 6.364 9.512 9.6 15.379 6.533Zm21.152-28.835c-9.156-3.358-11.658-16.696-4.328-23.069 13.153-11.437 30.998 6.487 19.487 19.573-3.197 3.635-10.31 5.275-15.159 3.496Zm10.366-1.244c9.994-5.147 9.868-18.991-.213-23.304-13.311-5.696-24.34 11.738-13.469 21.29 3.532 3.103 9.781 4.023 13.682 2.014Zm-40.478-.085c-4.915-1.501-8.134-6.125-8.146-11.701-.035-15.785 23.241-16.137 24.117-.365.479 8.634-7.491 14.655-15.971 12.066Zm7.16-.79c7.963-2.36 10.631-12.572 4.838-18.517-9.426-9.675-24.975 2.679-17.422 13.842 2.918 4.312 7.752 6.108 12.585 4.675Zm-39.303-1.042c-6.594-3.007-8.36-11.439-3.538-16.906 6.386-7.243 17.968-3.202 18.515 6.459.459 8.104-7.673 13.777-14.977 10.447Zm7.974-.731c6.844-2.849 8.266-11.463 2.718-16.466-5.72-5.158-14.708-1.658-15.97 6.219-1.113 6.946 6.69 12.979 13.252 10.247Zm87.545-26.057c-13.899-4.388-15.58-22.62-2.694-29.215 10.35-5.297 22.653 2.398 22.626 14.15-.024 10.377-10.264 18.117-19.932 15.065Zm10.399-1.771c13.854-6.543 9.866-27.302-5.383-28.019-11.318-.532-19.028 11.263-13.926 21.307 3.573 7.033 12.245 10.048 19.309 6.712Zm-44.855-.615c-11.08-5.304-10.364-21.79 1.127-25.94 14.589-5.267 26.062 12.749 14.971 23.509-3.945 3.827-10.968 4.887-16.098 2.431Zm10.677-.35c5.852-1.886 9.751-8.472 8.637-14.589-2.034-11.173-16.72-14.819-23.512-5.837-7.967 10.535 2.209 24.51 14.875 20.426Zm-40.517-.424c-6.262-2.292-9.699-10.835-6.83-16.983 5.518-11.831 23.218-9.069 24.138 3.767.696 9.713-8.238 16.534-17.308 13.216Zm9.762-1.247c11.608-5.584 6.914-23.454-5.857-22.298-13.016 1.178-14.716 18.954-2.2 23.012 1.775.575 6.19.184 8.057-.714Zm-40.02.161c-4.118-1.155-7.725-6.216-7.725-10.841 0-9.579 11.858-14.88 18.624-8.326 8.646 8.376.666 22.409-10.899 19.167Zm6.179-1.047c7.34-2.176 9.86-10.758 4.838-16.468-3.751-4.264-9.688-4.734-14.066-1.113-8.406 6.952-1.204 20.674 9.228 17.581ZM25.3 104.694c-9.022-4.758-5.83-18.227 4.33-18.27 10.192-.042 13.474 13.815 4.32 18.238-2.459 1.188-6.431 1.203-8.65.032Zm7.341-.455c4.755-1.79 6.959-7.51 4.664-12.108-4.025-8.062-16.268-5.229-16.296 3.771-.019 6.082 6.056 10.436 11.632 8.337Zm86.587-27.33c-14.161-5.045-11.078-25.594 3.979-26.523 12.024-.742 18.63 12.375 11.272 22.383-2.926 3.98-10.176 5.949-15.251 4.14Zm9.972-1.432c6.101-2.62 9.174-10.697 6.356-16.708-4.229-9.02-16.557-10.201-22.128-2.12-7.393 10.727 3.726 24 15.772 18.828Zm-41.389-.246c-6.258-2.208-9.338-10.999-5.977-17.056 6.24-11.246 22.911-6.997 22.911 5.839 0 8.694-8.372 14.24-16.934 11.218Zm10.576-1.617c8.493-4.968 6.704-17.808-2.853-20.485-10.678-2.99-18.642 9.609-11.407 18.046 3.473 4.05 9.689 5.113 14.26 2.44Zm-41.855.228c-6.504-2.95-8.341-11.712-3.548-16.928 6.808-7.407 18.564-3.036 18.603 6.917.03 7.702-8.15 13.142-15.055 10.011Zm8.086-.96c7.156-3.239 8.162-12.527 1.849-17.074-5.16-3.717-13.165-.733-14.932 5.566-2.163 7.713 5.865 14.775 13.083 11.508Zm25.317-29.605c-4.75-.94-8.6-5.325-9.053-10.309-.967-10.647 11.623-17.098 19.422-9.952 9.044 8.288 1.694 22.65-10.369 20.261Zm6.864-1.51c7.145-2.975 8.787-12.855 2.983-17.942-10.108-8.859-24.052 4.831-15.307 15.029 2.843 3.315 8.274 4.599 12.324 2.913Z"/></svg>
